svgs/vkontakte.svg

<?xml version="1.0" encoding="UTF-8" standalone="no"?>
<svg
   height="192"
   viewBox="0 0 9 9"
   width="192"
   version="1.1"
   id="svg362"
   xml:space="preserve"
   xmlns="http://www.w3.org/2000/svg"
   xmlns:svg="http://www.w3.org/2000/svg"><defs
     id="defs366" /><path
     d="m 4.8184699,6.7573831 c -2.436556,0 -3.82630624,-1.6947319 -3.88421352,-4.5147662 H 2.1547618 C 2.194849,4.3124498 3.0946175,5.1891911 3.8073214,5.3699623 V 2.2426169 H 4.9566009 V 4.0277347 C 5.6603957,3.9509092 6.399737,3.1374355 6.6491831,2.2426169 H 7.7984404 C 7.6069012,3.3453227 6.8051095,4.1587942 6.2349463,4.4932209 6.8051095,4.7643782 7.718306,5.4739062 8.0657489,6.7573831 H 6.8006549 C 6.5289368,5.8987187 5.851935,5.2343838 4.9566009,5.143998 v 1.6133851 z"
     fill="#ffffff"
     id="path14300"
     style="fill:none;stroke:#000000;stroke-width:0.375;stroke-linecap:round;stroke-linejoin:round;stroke-dasharray:none;stroke-opacity:1" /></svg>

<svg height="192" viewBox="0 0 9 9" width="192" xml:space="preserve" xmlns="http://www.w3.org/2000/svg"><path d="M4.818 6.757C2.382 6.757.992 5.063.934 2.243h1.22c.04 2.07.94 2.946 1.653 3.127V2.243h1.15v1.785c.703-.077 1.443-.89 1.692-1.785H7.8c-.192 1.102-.994 1.916-1.564 2.25.57.271 1.483.98 1.83 2.264H6.802c-.272-.858-.95-1.523-1.844-1.613v1.613z" fill="#fff" style="fill:none;stroke:#000;stroke-width:.375;stroke-linecap:round;stroke-linejoin:round;stroke-dasharray:none;stroke-opacity:1"/></svg>
